X:181
T:Polska fr{\aa}n Tuna
R:sl\"angpolska
A:Sm{\aa}land
B:Wallmans samling nr 31, Sumlen 1976
Z:id:hn-sp-181
M:3/4
L:1/16
K:Dm
d2fd e2ge fefg | a2a^g a2ae d^c=BA | d2fd e2ge fefg | age^c c2d2 d4 :|
|: d2a2 a2g2 f2e2 | f2ef gfef f2e2 | d2a2 a2g2 f2e2 | f2ef gfef f2e2 |
f2f2 gfef d2d2 | d2d2 edcB A2A2 | a2ab g2ga fefg | age^c c2d2 d4 :|
<end>
<start>
